icons/svg/shopping/spices.svg

<?xml version="1.0" encoding="UTF-8" standalone="no"?>
<!-- Created with Inkscape (http://www.inkscape.org/) -->

<svg
   xmlns:dc="http://purl.org/dc/elements/1.1/"
   xmlns:cc="http://creativecommons.org/ns#"
   xmlns:rdf="http://www.w3.org/1999/02/22-rdf-syntax-ns#"
   xmlns:svg="http://www.w3.org/2000/svg"
   xmlns="http://www.w3.org/2000/svg"
   xmlns:sodipodi="http://sodipodi.sourceforge.net/DTD/sodipodi-0.dtd"
   xmlns:inkscape="http://www.inkscape.org/namespaces/inkscape"
   version="1.0"
   width="580"
   height="580"
   id="svg2"
   sodipodi:version="0.32"
   inkscape:version="0.91 r"
   sodipodi:docname="spices.svg"
   inkscape:output_extension="org.inkscape.output.svg.inkscape">
  <metadata
     id="metadata2975">
    <rdf:RDF>
      <cc:Work
         rdf:about="">
        <dc:format>image/svg+xml</dc:format>
        <dc:type
           rdf:resource="http://purl.org/dc/dcmitype/StillImage" />
        <cc:license
           rdf:resource="http://web.resource.org/cc/PublicDomain" />
        <dc:language>en</dc:language>
        <dc:title />
      </cc:Work>
    </rdf:RDF>
  </metadata>
  <sodipodi:namedview
     inkscape:window-height="1006"
     inkscape:window-width="1920"
     inkscape:pageshadow="2"
     inkscape:pageopacity="0.0"
     guidetolerance="10.0"
     gridtolerance="10.0"
     objecttolerance="10.0"
     borderopacity="1.0"
     bordercolor="#666666"
     pagecolor="#ffffff"
     id="base"
     inkscape:zoom="0.46083856"
     inkscape:cx="21.037023"
     inkscape:cy="586.29405"
     inkscape:window-x="1920"
     inkscape:window-y="0"
     inkscape:current-layer="svg2"
     showgrid="false"
     showguides="true"
     inkscape:guide-bbox="true"
     inkscape:window-maximized="1" />
  <defs
     id="defs4">
    <inkscape:perspective
       sodipodi:type="inkscape:persp3d"
       inkscape:vp_x="0 : 290 : 1"
       inkscape:vp_y="0 : 1000 : 0"
       inkscape:vp_z="580 : 290 : 1"
       inkscape:persp3d-origin="290 : 193.33333 : 1"
       id="perspective2441" />
    <inkscape:perspective
       id="perspective3452"
       inkscape:persp3d-origin="30 : 20 : 1"
       inkscape:vp_z="60 : 30 : 1"
       inkscape:vp_y="0 : 1000 : 0"
       inkscape:vp_x="0 : 30 : 1"
       sodipodi:type="inkscape:persp3d" />
    <symbol
       viewBox="244.5 110 489 219.9"
       id="symbol-university">
      <path
         id="path4460"
         d="M79,43l57,119c0,0,21-96,104-96s124,106,124,106l43-133l82-17L0,17L79,43z" />
      <path
         id="path4462"
         d="M94,176l-21,39"
         stroke-width="20"
         stroke="#000000"
         fill="none" />
      <path
         id="path4464"
         d="M300,19c0,10.5-22.6,19-50.5,19S199,29.5,199,19s22.6-19,50.5-19S300,8.5,300,19z" />
      <path
         id="path4466"
         d="M112,216l-16-38L64,88c0,0-9-8-4-35s16-24,16-24"
         stroke-width="20"
         stroke="#000000"
         ill="none" />
    </symbol>
    <inkscape:perspective
       id="perspective4471"
       inkscape:persp3d-origin="372.04724 : 350.78739 : 1"
       inkscape:vp_z="744.09448 : 526.18109 : 1"
       inkscape:vp_y="0 : 1000 : 0"
       inkscape:vp_x="0 : 526.18109 : 1"
       sodipodi:type="inkscape:persp3d" />
    <inkscape:perspective
       id="perspective4668"
       inkscape:persp3d-origin="6 : 4 : 1"
       inkscape:vp_z="12 : 6 : 1"
       inkscape:vp_y="0 : 1000 : 0"
       inkscape:vp_x="0 : 6 : 1"
       sodipodi:type="inkscape:persp3d" />
    <marker
       viewBox="0 0 10 10"
       refY="5"
       refX="10"
       orient="auto"
       markerWidth="4"
       markerUnits="strokeWidth"
       markerHeight="3"
       id="ArrowStart">
      <path
         id="path3634"
         d="M 10 0 L 0 5 L 10 10 z" />
    </marker>
    <marker
       viewBox="0 0 10 10"
       refY="5"
       refX="0"
       orient="auto"
       markerWidth="4"
       markerUnits="strokeWidth"
       markerHeight="3"
       id="ArrowEnd">
      <path
         id="path3631"
         d="M 0 0 L 10 5 L 0 10 z" />
    </marker>
    <inkscape:perspective
       id="perspective2510"
       inkscape:persp3d-origin="306.082 : 204.39034 : 1"
       inkscape:vp_z="612.164 : 306.58551 : 1"
       inkscape:vp_y="0 : 1000 : 0"
       inkscape:vp_x="0 : 306.58551 : 1"
       sodipodi:type="inkscape:persp3d" />
    <marker
       viewBox="0 0 10 10"
       refY="5"
       refX="10"
       orient="auto"
       markerWidth="4"
       markerUnits="strokeWidth"
       markerHeight="3"
       id="marker2611">
      <path
         id="path1325"
         d="M 10 0 L 0 5 L 10 10 z" />
    </marker>
    <marker
       viewBox="0 0 10 10"
       refY="5"
       refX="0"
       orient="auto"
       markerWidth="4"
       markerUnits="strokeWidth"
       markerHeight="3"
       id="marker2608">
      <path
         id="path1322"
         d="M 0 0 L 10 5 L 0 10 z" />
    </marker>
    <inkscape:perspective
       id="perspective2605"
       inkscape:persp3d-origin="306.082 : 204.39034 : 1"
       inkscape:vp_z="612.164 : 306.58551 : 1"
       inkscape:vp_y="0 : 1000 : 0"
       inkscape:vp_x="0 : 306.58551 : 1"
       sodipodi:type="inkscape:persp3d" />
    <inkscape:perspective
       id="perspective2656"
       inkscape:persp3d-origin="372.04724 : 350.78739 : 1"
       inkscape:vp_z="744.09448 : 526.18109 : 1"
       inkscape:vp_y="0 : 1000 : 0"
       inkscape:vp_x="0 : 526.18109 : 1"
       sodipodi:type="inkscape:persp3d" />
    <marker
       viewBox="0 0 10 10"
       refY="5"
       refX="10"
       orient="auto"
       markerWidth="4"
       markerUnits="strokeWidth"
       markerHeight="3"
       id="marker4460">
      <path
         id="path2826"
         d="M 10 0 L 0 5 L 10 10 z" />
    </marker>
    <marker
       viewBox="0 0 10 10"
       refY="5"
       refX="0"
       orient="auto"
       markerWidth="4"
       markerUnits="strokeWidth"
       markerHeight="3"
       id="marker4457">
      <path
         id="path2823"
         d="M 0 0 L 10 5 L 0 10 z" />
    </marker>
    <inkscape:perspective
       id="perspective4454"
       inkscape:persp3d-origin="421.95551 : 208.05033 : 1"
       inkscape:vp_z="843.91101 : 312.0755 : 1"
       inkscape:vp_y="0 : 1000 : 0"
       inkscape:vp_x="0 : 312.0755 : 1"
       sodipodi:type="inkscape:persp3d" />
  </defs>
  <g
     id="g1327">
    <path
       d="M 66.275,1.768 C 24.94,1.768 1.704,23.139 1.704,66.804 L 1.704,516.927 C 1.704,557.771 22.599,579.156 63.896,579.156 L 515.92,579.156 C 557.227,579.156 578.149,558.841 578.149,516.927 L 578.149,66.804 C 578.149,24.203 557.227,1.768 514.628,1.768 C 514.624,1.768 66.133,1.625 66.275,1.768 z "
       style="fill:#111;stroke:#eee;stroke-width:3.40799999"
       id="path1329" />
  </g>
  <path
     id="path2836"
     style="fill:#000000;stroke:#000000;stroke-width:1.85899997"
     d="" />
  <g
     id="g2830"
     transform="matrix(1.0003476,0,0,0.7145342,-135.88909,-99.846725)"
     style="opacity:0.5;fill:#ffffff;fill-opacity:1;stroke:#ffffff;stroke-opacity:1">
    <path
       id="path2834"
       style="fill:#ffffff;fill-opacity:1;stroke:#ffffff;stroke-width:42;stroke-opacity:1"
       d="" />
  </g>
  <path
     style="color:#000000;font-style:normal;font-variant:normal;font-weight:normal;font-stretch:normal;font-size:medium;line-height:normal;font-family:sans-serif;text-indent:0;text-align:start;text-decoration:none;text-decoration-line:none;text-decoration-style:solid;text-decoration-color:#000000;letter-spacing:normal;word-spacing:normal;text-transform:none;direction:ltr;block-progression:tb;writing-mode:lr-tb;baseline-shift:baseline;text-anchor:start;white-space:normal;clip-rule:nonzero;display:inline;overflow:visible;visibility:visible;opacity:1;isolation:auto;mix-blend-mode:normal;color-interpolation:sRGB;color-interpolation-filters:linearRGB;solid-color:#000000;solid-opacity:1;fill:#ffffff;fill-opacity:1;fill-rule:nonzero;stroke:none;stroke-width:40.84222794;stroke-linecap:round;stroke-linejoin:round;stroke-miterlimit:10;stroke-dasharray:none;stroke-dashoffset:0;stroke-opacity:1;color-rendering:auto;image-rendering:auto;shape-rendering:auto;text-rendering:auto;enable-background:accumulate"
     d="m 138.1366,195.19263 c -17.49373,2.61457 -33.42244,6.52802 -47.133953,11.55558 -13.290148,4.87304 -24.565582,10.7234 -33.385802,18.36961 -8.820222,7.64624 -15.686356,18.12791 -15.686356,30.4133 0,1.05391 0.05441,2.0943 0.15237,3.121 -0.04986,-0.0467 -0.102638,-0.0926 -0.15237,-0.13945 0,84.97197 49.194298,126.71252 53.666498,132.67547 11.925863,10.43513 43.231123,26.8326 95.406813,26.8326 52.17569,0 83.48094,-16.39814 95.40682,-28.32402 5.96294,-4.47219 53.6665,-47.70349 53.6665,-132.67547 -0.0128,0.0128 -0.0259,0.0259 -0.0387,0.0387 0.0236,-0.50667 0.0387,-1.01582 0.0387,-1.52886 0,-12.2854 -6.86613,-22.76707 -15.68635,-30.4133 -8.82023,-7.64622 -20.09437,-13.49657 -33.38451,-18.36962 -12.40913,-4.55 -26.63114,-8.18962 -42.1884,-10.77823 l 45.78587,44.90393 c 4.30477,2.3001 7.77691,4.62071 10.25786,6.77143 4.75812,4.12481 5.40138,6.58657 5.40138,7.88579 0,1.29922 -0.64326,3.75968 -5.40138,7.88449 -4.75813,4.1248 -13.13051,8.87561 -24.11964,12.90496 -11.46028,4.20211 -25.71392,7.68024 -41.7584,10.05771 -13.77141,2.51971 -29.10735,4.19005 -45.06406,4.21729 -11.20553,0.0191 -22.26165,-0.76869 -32.7944,-2.09057 -23.46894,-2.06979 -44.24731,-6.45998 -59.85944,-12.18443 -10.989134,-4.02935 -19.361502,-8.78016 -24.119632,-12.90496 -4.758123,-4.12481 -5.401384,-6.58527 -5.401384,-7.88449 0,-1.29922 0.64326,-3.76098 5.401384,-7.88579 2.07569,-1.79941 4.84012,-3.71834 8.20861,-5.64414 0.0272,-0.0226 0.0542,-0.0488 0.0814,-0.071 l -0.0413,0.0284 0.30216,-0.26729 c 0.0755,-0.0593 0.1482,-0.14188 0.22339,-0.19885 l 52.216392,-46.2998 z"
     id="ellipse3"
     inkscape:connector-curvature="0" />
  <path
     style="fill:#ffffff;fill-opacity:0.86872589;fill-rule:evenodd;stroke:none;stroke-width:1px;stroke-linecap:butt;stroke-linejoin:miter;stroke-opacity:1"
     d="m 102.36003,251.26001 71.871,-63.72848 c 11.30697,-6.08421 23.35863,-9.76967 39.58731,0 l 65.52208,64.2584 c 9.4889,3.67136 -35.58912,22.87427 -85.68921,22.95981 -50.37139,0.086 -99.820314,-19.02104 -91.29118,-23.48973 z"
     id="path4248"
     inkscape:connector-curvature="0"
     sodipodi:nodetypes="ccccsc" />
  <path
     style="color:#000000;font-style:normal;font-variant:normal;font-weight:normal;font-stretch:normal;font-size:medium;line-height:normal;font-family:sans-serif;text-indent:0;text-align:start;text-decoration:none;text-decoration-line:none;text-decoration-style:solid;text-decoration-color:#000000;letter-spacing:normal;word-spacing:normal;text-transform:none;direction:ltr;block-progression:tb;writing-mode:lr-tb;baseline-shift:baseline;text-anchor:start;white-space:normal;clip-rule:nonzero;display:inline;overflow:visible;visibility:visible;opacity:1;isolation:auto;mix-blend-mode:normal;color-interpolation:sRGB;color-interpolation-filters:linearRGB;solid-color:#000000;solid-opacity:1;fill:#ffffff;fill-opacity:1;fill-rule:nonzero;stroke:none;stroke-width:40.84222794;stroke-linecap:round;stroke-linejoin:round;stroke-miterlimit:10;stroke-dasharray:none;stroke-dashoffset:0;stroke-opacity:1;color-rendering:auto;image-rendering:auto;shape-rendering:auto;text-rendering:auto;enable-background:accumulate"
     d="m 359.28826,174.09353 c -15.48746,2.31472 -29.5895,5.77949 -41.72851,10.23047 -3.51924,1.29038 -6.85722,2.67018 -10.04688,4.13477 7.84707,3.30946 15.31643,7.15135 22.25391,11.8125 l 29.52148,-26.17774 z m 97.98828,0.6875 40.53516,39.75586 c 3.81108,2.03631 6.8856,4.09008 9.08203,5.99414 4.21243,3.65176 4.78125,5.83025 4.78125,6.98047 0,1.15022 -0.56882,3.32871 -4.78125,6.98047 -4.21245,3.65175 -11.62468,7.85854 -21.35352,11.42578 -10.14596,3.72019 -22.76628,6.79949 -36.9707,8.9043 -12.19203,2.23074 -25.76781,3.70831 -39.89453,3.73242 -9.92042,0.0169 -19.71036,-0.67933 -29.03516,-1.84961 -5.7007,-0.50276 -11.21296,-1.16496 -16.50976,-1.95898 0.004,0.26194 0.0137,0.52178 0.0137,0.78515 0,0.37359 -0.0182,0.6542 -0.0254,0.9961 a 23.069274,23.069274 0 0 1 0.0254,0.49414 c 0,42.81647 -11.1294,76.79245 -24.03906,101.38867 14.77432,6.82674 36.97715,12.95703 66.98828,12.95703 46.19192,0 73.90668,-14.51801 84.46484,-25.07617 5.27908,-3.9593 47.51172,-42.23201 47.51172,-117.45898 l -0.0352,0.0332 c 0.0209,-0.44856 0.0352,-0.89932 0.0352,-1.35352 0,-10.87645 -6.07805,-20.15451 -13.88672,-26.92382 -7.80868,-6.76932 -17.79068,-11.94949 -29.55664,-16.26368 -10.98598,-4.02818 -23.57653,-7.25123 -37.34961,-9.54297 z"
     id="ellipse3-6"
     inkscape:connector-curvature="0" />
  <path
     style="fill:#ffffff;fill-opacity:0.86872589;fill-rule:evenodd;stroke:none;stroke-width:1px;stroke-linecap:butt;stroke-linejoin:miter;stroke-opacity:1"
     d="m 409.30193,161.98025 c -6.58878,-0.0561 -12.42784,2.30021 -18.05859,5.33008 l -48.91797,43.375 c 7.53852,7.24599 14.4041,16.70948 17.96289,28.10352 14.02511,3.28703 31.0203,5.76751 48.14844,5.73828 44.35436,-0.0757 84.262,-17.07586 75.86133,-20.32617 l -58.00782,-56.89063 c -6.28577,-3.78404 -11.86367,-5.28643 -16.98828,-5.33008 z"
     id="path4248-2"
     inkscape:connector-curvature="0" />
</svg>

<svg width="580" height="580" viewBox="0 0 580 580" fill="none" xmlns="http://www.w3.org/2000/svg">
<g clip-path="url(#clip0)">
<path d="M66.2751 1.76863C24.9401 1.76863 1.7041 23.1396 1.7041 66.8046V516.928C1.7041 557.772 22.5991 579.157 63.8961 579.157H515.92C557.227 579.157 578.149 558.842 578.149 516.928V66.8046C578.149 24.2036 557.227 1.76863 514.628 1.76863C514.624 1.76863 66.1331 1.62563 66.2751 1.76863Z" fill="#111111" stroke="#EEEEEE" stroke-width="3.408"/>
<path d="M138.137 195.193C120.643 197.808 104.714 201.721 91.0026 206.749C77.7124 211.622 66.437 217.472 57.6168 225.119C48.7966 232.765 41.9304 243.246 41.9304 255.532C41.9304 256.586 41.9848 257.626 42.0828 258.653C42.0329 258.606 41.9802 258.56 41.9304 258.513C41.9304 343.485 91.1247 385.226 95.5969 391.189C107.523 401.624 138.828 418.021 191.004 418.021C243.179 418.021 274.485 401.623 286.411 389.697C292.373 385.225 340.077 341.994 340.077 257.022C340.064 257.035 340.051 257.048 340.038 257.061C340.062 256.554 340.077 256.045 340.077 255.532C340.077 243.246 333.211 232.765 324.391 225.119C315.57 217.472 304.296 211.622 291.006 206.749C278.597 202.199 264.375 198.559 248.818 195.971L294.604 240.875C298.908 243.175 302.381 245.495 304.862 247.646C309.62 251.771 310.263 254.233 310.263 255.532C310.263 256.831 309.62 259.292 304.862 263.416C300.103 267.541 291.731 272.292 280.742 276.321C269.282 280.523 255.028 284.001 238.983 286.379C225.212 288.899 209.876 290.569 193.919 290.596C182.714 290.615 171.658 289.828 161.125 288.506C137.656 286.436 116.878 282.046 101.266 276.321C90.2764 272.292 81.9041 267.541 77.146 263.416C72.3878 259.292 71.7446 256.831 71.7446 255.532C71.7446 254.233 72.3878 251.771 77.146 247.646C79.2216 245.847 81.9861 243.928 85.3546 242.002C85.3818 241.979 85.4088 241.953 85.436 241.931L85.3947 241.959L85.6968 241.692C85.7723 241.633 85.845 241.55 85.9202 241.493L138.137 195.193H138.137Z" fill="white"/>
<path fill-rule="evenodd" clip-rule="evenodd" d="M102.36 251.26L174.231 187.531C185.538 181.447 197.59 177.762 213.818 187.531L279.34 251.79C288.829 255.461 243.751 274.664 193.651 274.749C143.28 274.835 93.831 255.728 102.36 251.26V251.26Z" fill="white" fill-opacity="0.868726"/>
<path d="M359.288 174.094C343.801 176.408 329.699 179.873 317.56 184.324C314.041 185.615 310.703 186.994 307.513 188.459C315.36 191.768 322.829 195.61 329.767 200.271L359.288 174.094V174.094ZM457.277 174.781L497.812 214.537C501.623 216.573 504.697 218.627 506.894 220.531C511.106 224.183 511.675 226.361 511.675 227.512C511.675 228.662 511.106 230.84 506.894 234.492C502.681 238.144 495.269 242.351 485.54 245.918C475.394 249.638 462.774 252.717 448.57 254.822C436.378 257.053 422.802 258.531 408.675 258.555C398.755 258.572 388.965 257.875 379.64 256.705C373.939 256.202 368.427 255.54 363.13 254.746C363.134 255.008 363.144 255.268 363.144 255.531C363.144 255.905 363.126 256.185 363.118 256.527C363.129 256.692 363.137 256.857 363.144 257.021C363.144 299.838 352.014 333.814 339.105 358.41C353.879 365.237 376.082 371.367 406.093 371.367C452.285 371.367 480 356.849 490.558 346.291C495.837 342.332 538.07 304.059 538.07 228.832L538.034 228.865C538.055 228.417 538.07 227.966 538.07 227.512C538.07 216.635 531.992 207.357 524.183 200.588C516.374 193.819 506.392 188.638 494.626 184.324C483.64 180.296 471.05 177.073 457.277 174.781H457.277Z" fill="white"/>
<path fill-rule="evenodd" clip-rule="evenodd" d="M409.302 161.979C402.713 161.923 396.874 164.28 391.243 167.31L342.325 210.685C349.864 217.931 356.73 227.394 360.288 238.788C374.313 242.075 391.309 244.556 408.437 244.526C452.791 244.451 492.699 227.451 484.298 224.2L426.29 167.31C420.005 163.526 414.427 162.023 409.302 161.979V161.979Z" fill="white" fill-opacity="0.868726"/>
</g>
<defs>
<clipPath id="clip0">
<path d="M0 0H580V580H0V0Z" fill="white"/>
</clipPath>
</defs>
</svg>
